packages/icon/src/svg/clock-warning.icon.svg

<svg width="24" height="24" viewBox="0 0 24 24" fill="none" xmlns="http://www.w3.org/2000/svg">
<path fill-rule="evenodd" clip-rule="evenodd" d="M19.7031 9.8374C19.8965 10.5255 20 11.2509 20 12C20 16.4111 16.4111 20 12 20C7.58887 20 4 16.4111 4 12C4 7.58887 7.58887 4 12 4C12.7491 4 13.4745 4.10349 14.1626 4.29694C14.3491 3.62299 14.6885 3.01254 15.1411 2.50528C14.1529 2.17749 13.0968 2 12 2C6.48608 2 2 6.48608 2 12C2 17.5139 6.48608 22 12 22C17.5139 22 22 17.5139 22 12C22 10.9032 21.8225 9.84711 21.4948 8.85889C20.9875 9.31149 20.377 9.65088 19.7031 9.8374ZM18.5 9C20.433 9 22 7.43298 22 5.5C22 3.56702 20.433 2 18.5 2C16.567 2 15 3.56702 15 5.5C15 7.43298 16.567 9 18.5 9ZM11.513 6.99933H12.513C12.7891 6.99933 13.013 7.22318 13.013 7.49933V11.5777L15.9126 14.4774C16.1078 14.6726 16.1078 14.9892 15.9126 15.1844L15.2055 15.8916C15.0103 16.0868 14.6937 16.0868 14.4984 15.8916L11.013 12.4062V7.49933C11.013 7.22318 11.2369 6.99933 11.513 6.99933ZM18 3.75C18 3.61194 18.1119 3.5 18.25 3.5H18.75C18.8881 3.5 19 3.61194 19 3.75V5.75C19 5.88806 18.8881 6 18.75 6H18.25C18.1119 6 18 5.88806 18 5.75V3.75ZM19.13 7.125C19.13 7.47018 18.8502 7.75 18.505 7.75C18.1599 7.75 17.88 7.47018 17.88 7.125C17.88 6.77982 18.1599 6.5 18.505 6.5C18.8502 6.5 19.13 6.77982 19.13 7.125Z" fill="white"/>
</svg>

<svg aria-label="clock warning icon" viewBox="0 0 24 24"><path fill-rule="evenodd" clip-rule="evenodd" d="M19.703 9.837c.194.688.297 1.414.297 2.163 0 4.411-3.589 8-8 8s-8-3.589-8-8 3.589-8 8-8c.75 0 1.475.103 2.163.297a4.49 4.49 0 01.978-1.792A9.96 9.96 0 0012 2C6.486 2 2 6.486 2 12s4.486 10 10 10 10-4.486 10-10a9.963 9.963 0 00-.505-3.141 4.492 4.492 0 01-1.792.978zM18.5 9a3.5 3.5 0 100-7 3.5 3.5 0 000 7zm-6.987-2h1a.5.5 0 01.5.5v4.078l2.9 2.9a.5.5 0 010 .706l-.707.708a.5.5 0 01-.708 0l-3.485-3.486V7.5a.5.5 0 01.5-.5zM18 3.75a.25.25 0 01.25-.25h.5a.25.25 0 01.25.25v2a.25.25 0 01-.25.25h-.5a.25.25 0 01-.25-.25v-2zm1.13 3.375a.625.625 0 11-1.25 0 .625.625 0 011.25 0z"/></svg>
